X: 26847
T: Mimi And The New Generation
R: polka
M: 2/4
K: Edorian
|:E/F/G/A/ Be|df B2|g>f ef|B2 B2|
b>a fe|fa Be|dB AF|1 EF GB:|2 E2 E2||
|:b>a fe|fa B2|b>a fe|a2 f/g/a|
b>a fe|fa Be|dB AF|1 E2 E2:|2 EF GB||

